X:6
% %NRChange 2014-04-14
T:Brudmarsch
T:Cajsa's Gangl\"at
O:Sweden
C:Eft: Anders Stenberg Lillh\"ardal
M:2/4
L:1/8
Q:1/4=80
R:March/Gangl\"at
K:G
%P:A
D |"G"Bc/B/ "D7"AB/A/|"C"GB "D"d3/c/|"G"Bc/B/ "D7"AB/A/|"C"GB "D"D2|
"G"Bc/B/ "D7"AB/A/|"C"GB "D"d3/c/|"G"Bc/B/ "D7"AB/A/|"G"G2 z:|
%P:B
|:d|"Em"gg "Am"a3/f/|"D7"dd d3/c/|"G"Bc/B/ "D7"AB/A/|"C"GB "D"D3/ d/|
"Em"gg "Am"a3/f/|"D7"dd d3/c/|"G"Bc/B/ "D7"AB/A/|"G"G2z:|

